static/img/owl_dark.svg

<svg xmlns="http://www.w3.org/2000/svg" width="320" height="320" viewBox="0 0 1000 1000"><path fill="#fff" stroke="#fff" d="M215.8 147.55c0-4.4 1.08-8.42 3.23-12.07 2.17-3.64 5.09-6.56 8.77-8.76q5.52-3.3 12.12-3.3c4.47 0 8.53 1.1 12.17 3.3 3.65 2.2 6.55 5.12 8.71 8.76 2.16 3.65 3.25 7.67 3.25 12.07 0 4.33-1.09 8.34-3.25 12.01-2.16 3.68-5.06 6.62-8.71 8.82-3.64 2.19-7.7 3.29-12.17 3.29-4.4 0-8.44-1.1-12.12-3.29-3.68-2.2-6.6-5.14-8.77-8.82-2.15-3.67-3.23-7.68-3.23-12.01Zm100.03 60.7v-26.83h121.19v26.83zm117 0v-26.83h134.19v26.83zm130 0v-26.83h121.2v26.83zm172.97-60.7c0-4.4 1.08-8.42 3.23-12.07 2.17-3.64 5.09-6.56 8.77-8.76q5.52-3.3 12.12-3.3c4.47 0 8.53 1.1 12.17 3.3 3.65 2.2 6.55 5.12 8.71 8.76 2.16 3.65 3.25 7.67 3.25 12.07 0 4.33-1.09 8.34-3.25 12.01-2.16 3.68-5.06 6.62-8.71 8.82-3.64 2.19-7.7 3.29-12.17 3.29-4.4 0-8.44-1.1-12.12-3.29-3.68-2.2-6.6-5.14-8.77-8.82-2.15-3.67-3.23-7.68-3.23-12.01Zm-459.85 98.67v23.8q-9.84 0-15.36 2.76c-3.68 1.84-5.26 5.5-4.76 10.99l3.36 31.92c.86 8.07-.03 14.6-2.66 19.58-2.64 4.98-6.64 8.78-12.01 11.42-5.38 2.63-11.71 4.49-18.99 5.56 7.72 1.16 14.24 3.04 19.58 5.64 5.34 2.59 9.24 6.34 11.69 11.25s3.25 11.47 2.39 19.69l-3.36 31.92c-.5 5.48 1.08 9.14 4.76 10.98 3.68 1.85 8.8 2.77 15.36 2.77v23.8c-19.9 0-33.88-3.01-41.92-9.03-8.04-6.03-11.31-16.32-9.8-30.89l3.25-30.96c.57-5.47-.35-9.77-2.76-12.87-2.42-3.1-5.97-5.29-10.66-6.55-4.68-1.26-10.1-1.89-16.23-1.89v-27.7c6.06 0 11.44-.63 16.12-1.89 4.69-1.26 8.26-3.45 10.71-6.55s3.39-7.4 2.82-12.88l-3.25-30.73c-1.58-14.86 1.66-25.27 9.74-31.22 8.08-5.94 22.08-8.92 41.98-8.92Zm93.97 63.08c11.83 0 21.9 2.52 30.19 7.58 8.3 5.05 14.65 12.14 19.05 21.26 4.39 9.13 6.59 19.82 6.59 32.08 0 19.19-4.91 34.23-14.72 45.12-9.8 10.89-23.51 16.33-41.11 16.33s-31.31-5.37-41.12-16.11c-9.81-10.75-14.71-25.79-14.71-45.12 0-12.2 2.22-22.88 6.66-32.03 4.44-9.16 10.82-16.3 19.14-21.43q12.495-7.68 30.03-7.68Zm0 25.22c-7 0-12.18 2.87-15.53 8.6-3.35 5.74-5.03 14.84-5.03 27.32 0 12.7 1.68 21.9 5.03 27.59 3.35 5.7 8.53 8.55 15.53 8.55s12.18-2.85 15.53-8.55c3.35-5.69 5.03-14.97 5.03-27.81 0-12.41-1.68-21.46-5.03-27.16-3.35-5.69-8.53-8.54-15.53-8.54Zm130 48.9c6.78 0 12.41 2.26 16.88 6.77 4.47 4.5 6.72 10.07 6.72 16.72 0 4.25-.78 8.5-2.33 12.76-1.56 4.25-3.89 9.91-6.99 16.99l-15.68 35.39H475.8l11.03-46c-3.31-2.09-5.86-4.82-7.63-8.21s-2.65-7.11-2.65-11.15c0-6.57 2.23-12.08 6.7-16.55 4.48-4.48 10.04-6.72 16.67-6.72Zm130-74.12c11.83 0 21.9 2.52 30.19 7.58 8.3 5.05 14.65 12.14 19.05 21.26 4.39 9.13 6.59 19.82 6.59 32.08 0 19.19-4.91 34.23-14.72 45.12-9.8 10.89-23.51 16.33-41.11 16.33s-31.31-5.37-41.12-16.11c-9.81-10.75-14.71-25.79-14.71-45.12 0-12.2 2.22-22.88 6.66-32.03 4.44-9.16 10.82-16.3 19.14-21.43q12.495-7.68 30.03-7.68Zm0 25.22c-7 0-12.18 2.87-15.53 8.6-3.35 5.74-5.03 14.84-5.03 27.32 0 12.7 1.68 21.9 5.03 27.59 3.35 5.7 8.53 8.55 15.53 8.55s12.18-2.85 15.53-8.55c3.35-5.69 5.03-14.97 5.03-27.81 0-12.41-1.68-21.46-5.03-27.16-3.35-5.69-8.53-8.54-15.53-8.54Zm93.97-88.3c19.91 0 33.88 2.99 41.92 8.98 8.05 5.98 11.32 16.3 9.8 30.94l-3.25 30.95c-.57 5.48.36 9.78 2.81 12.88 2.46 3.1 6.01 5.29 10.66 6.55s10.05 1.89 16.19 1.89v27.7c-6.07 0-11.44.63-16.13 1.89s-8.26 3.45-10.72 6.55c-2.45 3.1-3.38 7.4-2.81 12.87l3.25 30.74c1.66 14.78-1.57 25.16-9.69 31.15s-22.12 8.99-42.03 8.99v-23.8c6.63 0 11.79-.92 15.47-2.77 3.68-1.84 5.23-5.5 4.66-10.98l-3.36-31.92c-.87-8.15.02-14.69 2.65-19.63 2.64-4.94 6.66-8.74 12.07-11.37s11.76-4.49 19.04-5.58c-7.72-1.14-14.26-3.02-19.64-5.61-5.37-2.6-9.29-6.37-11.75-11.31-2.45-4.95-3.24-11.49-2.37-19.64l3.36-31.92c.57-5.49-1-9.15-4.72-10.99-3.71-1.84-8.85-2.76-15.41-2.76zm-516 466.01-26.72-12.21 91-188.83 26.5 12.23zm170.58-99.98c0-11.89-1.41-22.8-4.22-32.72s-7.23-19.63-13.25-29.11q-9.03-14.235-23.64-30.03l19.91-17.97c11.39 9.81 21.27 20.17 29.64 31.06 8.37 10.9 14.83 22.81 19.37 35.72q6.81 19.365 6.81 43.05 0 23.7-6.81 43.08c-4.54 12.9-11 24.81-19.37 35.7-8.37 10.9-18.25 21.24-29.64 31.05l-19.91-17.96c7.79-8.43 14.32-16.31 19.58-23.64 5.27-7.32 9.49-14.52 12.65-21.59a94.3 94.3 0 0 0 6.82-21.91c1.37-7.53 2.06-15.78 2.06-24.73Zm67.36 116v-26.83h121.19v26.83zm117 0v-26.83h121.2v26.83zm205.64-116c0-11.89-1.41-22.8-4.22-32.72s-7.23-19.63-13.25-29.11q-9.03-14.235-23.64-30.03l19.91-17.97c11.39 9.81 21.27 20.17 29.64 31.06 8.37 10.9 14.83 22.81 19.37 35.72q6.81 19.365 6.81 43.05 0 23.7-6.81 43.08c-4.54 12.9-11 24.81-19.37 35.7-8.37 10.9-18.25 21.24-29.64 31.05l-19.91-17.96c7.79-8.43 14.32-16.31 19.58-23.64 5.27-7.32 9.49-14.52 12.65-21.59a94.3 94.3 0 0 0 6.82-21.91c1.37-7.53 2.06-15.78 2.06-24.73ZM193.06 893.58v-26.63h93.72v26.63zm143.97-45.67-4.11-60.49h32.35l-4 60.49zm41.33 0-4-60.49h32.56l-4.11 60.49zm74.7 45.67v-26.63h93.72v26.63zm143.97-45.67-4.11-60.49h32.35l-4 60.49zm41.33 0-4-60.49h32.56l-4.11 60.49zm74.7 45.67v-26.63h93.72v26.63z"/></svg>

<?xml version="1.0" encoding="UTF-8" standalone="no"?>
<!DOCTYPE svg PUBLIC "-//W3C//DTD SVG 20010904//EN"
              "http://www.w3.org/TR/2001/REC-SVG-20010904/DTD/svg10.dtd">

<svg xmlns="http://www.w3.org/2000/svg"
     width="3.33333in" height="3.33333in"
     viewBox="0 0 1000 1000">
     <!--<rect x="0" y="0" width="1000" height="1000" fill="red"></rect>-->

  <path id="owl" stroke-width="1" stroke="white" fill="white"
        d="M 215.80,147.55
           C 215.80,143.15 216.88,139.13 219.03,135.48
             221.20,131.84 224.12,128.92 227.80,126.72
             231.48,124.52 235.52,123.42 239.92,123.42
             244.39,123.42 248.45,124.52 252.09,126.72
             255.74,128.92 258.64,131.84 260.80,135.48
             262.96,139.13 264.05,143.15 264.05,147.55
             264.05,151.88 262.96,155.89 260.80,159.56
             258.64,163.24 255.74,166.18 252.09,168.38
             248.45,170.57 244.39,171.67 239.92,171.67
             235.52,171.67 231.48,170.57 227.80,168.38
             224.12,166.18 221.20,163.24 219.03,159.56
             216.88,155.89 215.80,151.88 215.80,147.55 Z
           M 315.83,208.25
           C 315.83,208.25 315.83,181.42 315.83,181.42
             315.83,181.42 437.02,181.42 437.02,181.42
             437.02,181.42 437.02,208.25 437.02,208.25
             437.02,208.25 315.83,208.25 315.83,208.25 Z
           M 432.83,208.25
           C 432.83,208.25 432.83,181.42 432.83,181.42
             432.83,181.42 567.02,181.42 567.02,181.42
             567.02,181.42 567.02,208.25 567.02,208.25
             567.02,208.25 432.83,208.25 432.83,208.25 Z
           M 562.83,208.25
           C 562.83,208.25 562.83,181.42 562.83,181.42
             562.83,181.42 684.03,181.42 684.03,181.42
             684.03,181.42 684.03,208.25 684.03,208.25
             684.03,208.25 562.83,208.25 562.83,208.25 Z
           M 735.80,147.55
           C 735.80,143.15 736.88,139.13 739.03,135.48
             741.20,131.84 744.12,128.92 747.80,126.72
             751.48,124.52 755.52,123.42 759.92,123.42
             764.39,123.42 768.45,124.52 772.09,126.72
             775.74,128.92 778.64,131.84 780.80,135.48
             782.96,139.13 784.05,143.15 784.05,147.55
             784.05,151.88 782.96,155.89 780.80,159.56
             778.64,163.24 775.74,166.18 772.09,168.38
             768.45,170.57 764.39,171.67 759.92,171.67
             755.52,171.67 751.48,170.57 747.80,168.38
             744.12,166.18 741.20,163.24 739.03,159.56
             736.88,155.89 735.80,151.88 735.80,147.55 Z
           M 275.95,246.22
           C 275.95,246.22 275.95,270.02 275.95,270.02
             269.39,270.02 264.27,270.94 260.59,272.78
             256.91,274.62 255.33,278.28 255.83,283.77
             255.83,283.77 259.19,315.69 259.19,315.69
             260.05,323.76 259.16,330.29 256.53,335.27
             253.89,340.25 249.89,344.05 244.52,346.69
             239.14,349.32 232.81,351.18 225.53,352.25
             233.25,353.41 239.77,355.29 245.11,357.89
             250.45,360.48 254.35,364.23 256.80,369.14
             259.25,374.05 260.05,380.61 259.19,388.83
             259.19,388.83 255.83,420.75 255.83,420.75
             255.33,426.23 256.91,429.89 260.59,431.73
             264.27,433.58 269.39,434.50 275.95,434.50
             275.95,434.50 275.95,458.30 275.95,458.30
             256.05,458.30 242.07,455.29 234.03,449.27
             225.99,443.24 222.72,432.95 224.23,418.38
             224.23,418.38 227.48,387.42 227.48,387.42
             228.05,381.95 227.13,377.65 224.72,374.55
             222.30,371.45 218.75,369.26 214.06,368.00
             209.38,366.74 203.96,366.11 197.83,366.11
             197.83,366.11 197.83,338.41 197.83,338.41
             203.89,338.41 209.27,337.78 213.95,336.52
             218.64,335.26 222.21,333.07 224.66,329.97
             227.11,326.87 228.05,322.57 227.48,317.09
             227.48,317.09 224.23,286.36 224.23,286.36
             222.65,271.50 225.89,261.09 233.97,255.14
             242.05,249.20 256.05,246.22 275.95,246.22 Z
           M 369.92,309.30
           C 381.75,309.30 391.82,311.82 400.11,316.88
             408.41,321.93 414.76,329.02 419.16,338.14
             423.55,347.27 425.75,357.96 425.75,370.22
             425.75,389.41 420.84,404.45 411.03,415.34
             401.23,426.23 387.52,431.67 369.92,431.67
             352.32,431.67 338.61,426.30 328.80,415.56
             318.99,404.81 314.09,389.77 314.09,370.44
             314.09,358.24 316.31,347.56 320.75,338.41
             325.19,329.25 331.57,322.11 339.89,316.98
             348.22,311.86 358.23,309.30 369.92,309.30 Z
           M 369.92,334.52
           C 362.92,334.52 357.74,337.39 354.39,343.12
             351.04,348.86 349.36,357.96 349.36,370.44
             349.36,383.14 351.04,392.34 354.39,398.03
             357.74,403.73 362.92,406.58 369.92,406.58
             376.92,406.58 382.10,403.73 385.45,398.03
             388.80,392.34 390.48,383.06 390.48,370.22
             390.48,357.81 388.80,348.76 385.45,343.06
             382.10,337.37 376.92,334.52 369.92,334.52 Z
           M 499.92,383.42
           C 506.70,383.42 512.33,385.68 516.80,390.19
             521.27,394.69 523.52,400.26 523.52,406.91
             523.52,411.16 522.74,415.41 521.19,419.67
             519.63,423.92 517.30,429.58 514.20,436.66
             514.20,436.66 498.52,472.05 498.52,472.05
             498.52,472.05 475.80,472.05 475.80,472.05
             475.80,472.05 486.83,426.05 486.83,426.05
             483.52,423.96 480.97,421.23 479.20,417.84
             477.43,414.45 476.55,410.73 476.55,406.69
             476.55,400.12 478.78,394.61 483.25,390.14
             487.73,385.66 493.29,383.42 499.92,383.42 Z
           M 629.92,309.30
           C 641.75,309.30 651.82,311.82 660.11,316.88
             668.41,321.93 674.76,329.02 679.16,338.14
             683.55,347.27 685.75,357.96 685.75,370.22
             685.75,389.41 680.84,404.45 671.03,415.34
             661.23,426.23 647.52,431.67 629.92,431.67
             612.32,431.67 598.61,426.30 588.80,415.56
             578.99,404.81 574.09,389.77 574.09,370.44
             574.09,358.24 576.31,347.56 580.75,338.41
             585.19,329.25 591.57,322.11 599.89,316.98
             608.22,311.86 618.23,309.30 629.92,309.30 Z
           M 629.92,334.52
           C 622.92,334.52 617.74,337.39 614.39,343.12
             611.04,348.86 609.36,357.96 609.36,370.44
             609.36,383.14 611.04,392.34 614.39,398.03
             617.74,403.73 622.92,406.58 629.92,406.58
             636.92,406.58 642.10,403.73 645.45,398.03
             648.80,392.34 650.48,383.06 650.48,370.22
             650.48,357.81 648.80,348.76 645.45,343.06
             642.10,337.37 636.92,334.52 629.92,334.52 Z
           M 723.89,246.22
           C 743.80,246.22 757.77,249.21 765.81,255.20
             773.86,261.18 777.13,271.50 775.61,286.14
             775.61,286.14 772.36,317.09 772.36,317.09
             771.79,322.57 772.72,326.87 775.17,329.97
             777.63,333.07 781.18,335.26 785.83,336.52
             790.48,337.78 795.88,338.41 802.02,338.41
             802.02,338.41 802.02,366.11 802.02,366.11
             795.95,366.11 790.58,366.74 785.89,368.00
             781.20,369.26 777.63,371.45 775.17,374.55
             772.72,377.65 771.79,381.95 772.36,387.42
             772.36,387.42 775.61,418.16 775.61,418.16
             777.27,432.94 774.04,443.32 765.92,449.31
             757.80,455.30 743.80,458.30 723.89,458.30
             723.89,458.30 723.89,434.50 723.89,434.50
             730.52,434.50 735.68,433.58 739.36,431.73
             743.04,429.89 744.59,426.23 744.02,420.75
             744.02,420.75 740.66,388.83 740.66,388.83
             739.79,380.68 740.68,374.14 743.31,369.20
             745.95,364.26 749.97,360.46 755.38,357.83
             760.79,355.20 767.14,353.34 774.42,352.25
             766.70,351.11 760.16,349.23 754.78,346.64
             749.41,344.04 745.49,340.27 743.03,335.33
             740.58,330.38 739.79,323.84 740.66,315.69
             740.66,315.69 744.02,283.77 744.02,283.77
             744.59,278.28 743.02,274.62 739.30,272.78
             735.59,270.94 730.45,270.02 723.89,270.02
             723.89,270.02 723.89,246.22 723.89,246.22 Z
           M 207.89,712.23
           C 207.89,712.23 181.17,700.02 181.17,700.02
             181.17,700.02 272.17,511.19 272.17,511.19
             272.17,511.19 298.67,523.42 298.67,523.42
             298.67,523.42 207.89,712.23 207.89,712.23 Z
           M 378.47,612.25
           C 378.47,600.36 377.06,589.45 374.25,579.53
             371.44,569.61 367.02,559.90 361.00,550.42
             354.98,540.93 347.10,530.92 337.36,520.39
             337.36,520.39 357.27,502.42 357.27,502.42
             368.66,512.23 378.54,522.59 386.91,533.48
             395.28,544.38 401.74,556.29 406.28,569.20
             410.82,582.11 413.09,596.46 413.09,612.25
             413.09,628.05 410.82,642.41 406.28,655.33
             401.74,668.23 395.28,680.14 386.91,691.03
             378.54,701.93 368.66,712.27 357.27,722.08
             357.27,722.08 337.36,704.12 337.36,704.12
             345.15,695.69 351.68,687.81 356.94,680.48
             362.21,673.16 366.43,665.96 369.59,658.89
             372.77,651.82 375.04,644.52 376.41,636.98
             377.78,629.45 378.47,621.20 378.47,612.25 Z
           M 445.83,728.25
           C 445.83,728.25 445.83,701.42 445.83,701.42
             445.83,701.42 567.02,701.42 567.02,701.42
             567.02,701.42 567.02,728.25 567.02,728.25
             567.02,728.25 445.83,728.25 445.83,728.25 Z
           M 562.83,728.25
           C 562.83,728.25 562.83,701.42 562.83,701.42
             562.83,701.42 684.03,701.42 684.03,701.42
             684.03,701.42 684.03,728.25 684.03,728.25
             684.03,728.25 562.83,728.25 562.83,728.25 Z
           M 768.47,612.25
           C 768.47,600.36 767.06,589.45 764.25,579.53
             761.44,569.61 757.02,559.90 751.00,550.42
             744.98,540.93 737.10,530.92 727.36,520.39
             727.36,520.39 747.27,502.42 747.27,502.42
             758.66,512.23 768.54,522.59 776.91,533.48
             785.28,544.38 791.74,556.29 796.28,569.20
             800.82,582.11 803.09,596.46 803.09,612.25
             803.09,628.05 800.82,642.41 796.28,655.33
             791.74,668.23 785.28,680.14 776.91,691.03
             768.54,701.93 758.66,712.27 747.27,722.08
             747.27,722.08 727.36,704.12 727.36,704.12
             735.15,695.69 741.68,687.81 746.94,680.48
             752.21,673.16 756.43,665.96 759.59,658.89
             762.77,651.82 765.04,644.52 766.41,636.98
             767.78,629.45 768.47,621.20 768.47,612.25 Z
           M 193.06,893.58
           C 193.06,893.58 193.06,866.95 193.06,866.95
             193.06,866.95 286.78,866.95 286.78,866.95
             286.78,866.95 286.78,893.58 286.78,893.58
             286.78,893.58 193.06,893.58 193.06,893.58 Z
           M 337.03,847.91
           C 337.03,847.91 332.92,787.42 332.92,787.42
             332.92,787.42 365.27,787.42 365.27,787.42
             365.27,787.42 361.27,847.91 361.27,847.91
             361.27,847.91 337.03,847.91 337.03,847.91 Z
           M 378.36,847.91
           C 378.36,847.91 374.36,787.42 374.36,787.42
             374.36,787.42 406.92,787.42 406.92,787.42
             406.92,787.42 402.81,847.91 402.81,847.91
             402.81,847.91 378.36,847.91 378.36,847.91 Z
           M 453.06,893.58
           C 453.06,893.58 453.06,866.95 453.06,866.95
             453.06,866.95 546.78,866.95 546.78,866.95
             546.78,866.95 546.78,893.58 546.78,893.58
             546.78,893.58 453.06,893.58 453.06,893.58 Z
           M 597.03,847.91
           C 597.03,847.91 592.92,787.42 592.92,787.42
             592.92,787.42 625.27,787.42 625.27,787.42
             625.27,787.42 621.27,847.91 621.27,847.91
             621.27,847.91 597.03,847.91 597.03,847.91 Z
           M 638.36,847.91
           C 638.36,847.91 634.36,787.42 634.36,787.42
             634.36,787.42 666.92,787.42 666.92,787.42
             666.92,787.42 662.81,847.91 662.81,847.91
             662.81,847.91 638.36,847.91 638.36,847.91 Z
           M 713.06,893.58
           C 713.06,893.58 713.06,866.95 713.06,866.95
             713.06,866.95 806.78,866.95 806.78,866.95
             806.78,866.95 806.78,893.58 806.78,893.58
             806.78,893.58 713.06,893.58 713.06,893.58 Z" />
</svg>
